icons/outpatient.svg

<svg width="48" height="48" viewBox="0 0 48 48" fill="none" xmlns="http://www.w3.org/2000/svg">
<path fill-rule="evenodd" clip-rule="evenodd" d="M23.8885 9.50014C23.4338 7.49608 21.6416 6 19.5 6C17.0147 6 15 8.01472 15 10.5C15 12.9853 17.0147 15 19.5 15C21.6415 15 23.4336 13.5041 23.8884 11.5002L24 11.5C24.0416 11.5 24.0826 11.4975 24.1229 11.4925C24.3533 12.3795 24.8832 13 25.5 13C26.3284 13 27 11.8807 27 10.5C27 9.11929 26.3284 8 25.5 8C24.8832 8 24.3533 8.62053 24.1229 9.50747C24.0826 9.50254 24.0416 9.5 24 9.5L23.8885 9.50014ZM21.7655 11.5585C21.367 12.4101 20.5024 13 19.5 13C18.2568 13 17.2256 12.0926 17.0325 10.904C18.6613 11.6234 20.0617 11.6197 21.7655 11.5585ZM17.5473 8.93874C18.0055 8.36649 18.7099 8 19.5 8C20.5425 8 21.436 8.63814 21.8112 9.54511L21.7853 9.546C19.943 9.60882 18.9328 9.64327 17.5473 8.93874Z" fill="black"/>
<path fill-rule="evenodd" clip-rule="evenodd" d="M8.62741 19.499C10.2795 17.5178 12.7603 16 15.76 16C17.0729 16 18.2334 16.8538 18.6241 18.1072L19.8987 22.1961H21C22.6569 22.1961 24 23.5393 24 25.1961C24 26.853 22.6569 28.1961 21 28.1961H17.6914C16.3945 28.1961 15.2464 27.363 14.842 26.1345C14.4412 27.2088 14.1353 28.3835 14 29.6182V39C14 40.6569 12.6569 42 11 42C9.34315 42 8 40.6569 8 39V32.0124C7.80707 31.7057 7.56911 31.311 7.3282 30.8693C7.04946 30.3584 6.74028 29.7365 6.49404 29.0845C6.26553 28.4794 6 27.6162 6 26.6899C6 24.062 6.98763 21.4654 8.62741 19.499ZM15.76 18C13.4738 18 11.5199 19.1532 10.1634 20.7798C8.812 22.4004 8 24.5477 8 26.6899C8 27.2604 8.16901 27.8587 8.36506 28.3779C8.56739 28.9136 8.83077 29.4474 9.08395 29.9116C9.33859 30.3784 9.59186 30.7909 9.78096 31.0862C9.80108 31.1176 9.82051 31.1478 9.83918 31.1766C9.94415 31.3386 10 31.5275 10 31.7205V39C10 39.5523 10.4477 40 11 40C11.5523 40 12 39.5523 12 39V29.5646C12 29.5295 12.0018 29.4944 12.0055 29.4596C12.2726 26.9301 13.1584 24.6558 14.1539 22.8785C14.3492 22.5299 14.7331 22.331 15.1304 22.3726C15.5277 22.4141 15.8622 22.6882 15.9811 23.0696L16.7367 25.4937C16.867 25.9115 17.2538 26.1961 17.6914 26.1961H21C21.5523 26.1961 22 25.7484 22 25.1961C22 24.6438 21.5523 24.1961 21 24.1961H19.1629C18.7253 24.1961 18.3385 23.9115 18.2082 23.4937L16.7147 18.7024C16.5845 18.2846 16.1976 18 15.76 18Z" fill="black"/>
<path fill-rule="evenodd" clip-rule="evenodd" d="M37.5 18C39.9853 18 42 15.9853 42 13.5C42 11.0147 39.9853 9 37.5 9C35.0147 9 33 11.0147 33 13.5C33 15.9853 35.0147 18 37.5 18ZM37.5 16C38.8807 16 40 14.8807 40 13.5C40 12.1193 38.8807 11 37.5 11C36.1193 11 35 12.1193 35 13.5C35 14.8807 36.1193 16 37.5 16Z" fill="black"/>
<path fill-rule="evenodd" clip-rule="evenodd" d="M34.3788 17.7696C33.8029 16.4892 32.417 15.7808 31.0442 16.0605C31.0266 16.0637 31.0146 16.0666 31.0091 16.0679L31.0064 16.0685L30.9915 16.0718L30.9699 16.0766L30.9665 16.0774C30.9503 16.0811 30.9329 16.0853 30.9143 16.0898C30.877 16.099 30.8349 16.1099 30.7882 16.1229C30.6949 16.1488 30.5831 16.1829 30.4555 16.2274C30.2006 16.3163 29.881 16.4472 29.5198 16.6373C28.7933 17.0198 27.9087 17.6374 27.0587 18.6137C25.3214 20.6094 24 23.78 24 28.6669C24 29.1778 24.0986 30.9403 25.8535 31.8045C26.0232 31.8881 26.1894 31.9516 26.3464 32H16V42H18V35H29V42H31V33.5396C31.2974 33.7448 31.5976 33.9604 31.8921 34.1791C32.4248 34.5747 32.8975 34.9491 33.2424 35.2325C33.3637 35.3322 33.4656 35.4177 33.5459 35.4862C33.6241 35.6109 33.7252 35.777 33.8473 35.9814C34.1229 36.4431 34.4679 37.0374 34.8238 37.6553C34.9901 37.9439 35.1614 38.2423 35.3292 38.5347L35.3321 38.5398L35.3589 38.5864L35.3595 38.5875L35.3601 38.5886C35.86 39.4595 36.344 40.3028 36.5418 40.613C37.4326 42.0101 39.2872 42.4205 40.6842 41.5298C42.0813 40.6391 42.4918 38.7845 41.601 37.3874C41.4864 37.2076 41.1129 36.5577 40.6146 35.6897L40.6133 35.6874C40.4277 35.3642 40.2277 35.0159 40.0227 34.66C39.665 34.0392 39.3002 33.4103 38.9989 32.9057C38.8491 32.6547 38.7055 32.4186 38.5813 32.2228L38.576 32.2144C38.4919 32.082 38.3018 31.7822 38.0913 31.5387C37.9129 31.3322 37.6815 31.1307 37.5988 31.0587L37.581 31.0432C37.4384 30.9188 37.2583 30.7667 37.0518 30.597C36.6379 30.2568 36.0878 29.8214 35.4693 29.3621C35.3405 29.2665 35.206 29.1677 35.0667 29.0669H39C40.6569 29.0669 42 27.7237 42 26.0669C42 24.41 40.6569 23.0669 39 23.0669H36.7615L34.3788 17.7696ZM31.5282 31.4861C31.4893 31.4608 31.4491 31.4385 31.4078 31.4192C31.3728 31.3895 31.3357 31.3623 31.2968 31.3377C30.7138 30.969 30.1287 30.6386 29.6132 30.4224C28.8116 30.0861 28.2546 30.1185 27.807 30.1454L27.7679 30.1477C27.6599 30.1543 27.5092 30.1628 27.3703 30.1579C27.2287 30.1528 26.9858 30.1328 26.7371 30.0103C26.0854 29.6893 26 29.0362 26 28.6669C26 24.1485 27.2146 21.4807 28.5672 19.9269C29.2374 19.1571 29.9192 18.6873 30.4515 18.407C30.717 18.2672 30.9445 18.175 31.1141 18.1159C31.1622 18.0991 31.2058 18.0849 31.2443 18.0731C31.3649 18.0708 31.4851 18.0467 31.5986 18.0011C32.0021 17.983 32.3846 18.2115 32.5548 18.59L35.2028 24.4771C35.3643 24.836 35.7213 25.0669 36.1148 25.0669H39C39.5523 25.0669 40 25.5146 40 26.0669C40 26.6192 39.5523 27.0669 39 27.0669H34.8214C34.4279 27.0669 34.0709 26.836 33.9094 26.4771L32.8861 24.2021C32.7222 23.8375 32.3568 23.6056 31.9571 23.6124C31.5573 23.6193 31.2001 23.8635 31.0487 24.2335C30.6043 25.3193 30.2856 26.4418 30.0961 27.6361C30.026 28.078 30.258 28.5127 30.6641 28.7005C31.8523 29.2498 33.2113 30.1765 34.2769 30.9678C34.8668 31.4058 35.3911 31.8209 35.782 32.1422C35.9773 32.3027 36.142 32.4419 36.2664 32.5504L36.2759 32.5588C36.3172 32.5948 36.3733 32.6437 36.4329 32.6995C36.4952 32.7577 36.5458 32.809 36.5781 32.8464C36.6239 32.8994 36.6794 32.9735 36.7392 33.0603C36.7975 33.145 36.8496 33.2266 36.8926 33.2944C37.0027 33.4679 37.1356 33.6862 37.2817 33.9309C37.5745 34.4212 37.9327 35.0386 38.2898 35.6584C38.4944 36.0136 38.6942 36.3617 38.8803 36.6858L38.8821 36.6889L38.9163 36.7485C39.3785 37.5537 39.7709 38.2372 39.9146 38.4626C40.2115 38.9283 40.0747 39.5465 39.609 39.8434C39.1433 40.1403 38.5251 40.0035 38.2282 39.5378C38.0592 39.2726 37.594 38.4629 37.0651 37.5413L37.0642 37.5398C36.8964 37.2474 36.7242 36.9474 36.5568 36.6569C36.2003 36.038 35.8487 35.4322 35.5645 34.9562C35.4221 34.7177 35.2998 34.5171 35.2039 34.3661C35.1822 34.3318 35.1635 34.3029 35.1478 34.2788C35.0978 34.2022 35.0376 34.1328 34.9688 34.0726L34.9524 34.0582L34.9513 34.0573C34.8452 33.9648 34.6963 33.8386 34.5122 33.6873C34.1443 33.385 33.6458 32.9903 33.0845 32.5735C32.5766 32.1963 32.0449 31.8219 31.5282 31.4861Z" fill="black"/>
</svg>

<svg
  xmlns="http://www.w3.org/2000/svg"
  width="24"
  height="24"
  viewBox="0 0 24 24"
  fill="none"
  stroke="currentColor"
  stroke-width="2"
  stroke-linecap="round"
  stroke-linejoin="round"
>
  <path
    fill-rule="evenodd"
    d="M23.889 9.5a4.502 4.502 0 0 0-8.889 1 4.5 4.5 0 0 0 8.888 1H24a1 1 0 0 0 .123-.008c.23.887.76 1.508 1.377 1.508.828 0 1.5-1.12 1.5-2.5S26.328 8 25.5 8c-.617 0-1.147.62-1.377 1.507A1 1 0 0 0 24 9.5zm-2.123 2.059a2.5 2.5 0 0 1-4.733-.655c1.628.72 3.029.716 4.732.655m-4.219-2.62a2.5 2.5 0 0 1 4.264.606l-.026.001c-1.842.063-2.852.097-4.238-.607"
    clip-rule="evenodd"
  />
  <path
    fill-rule="evenodd"
    d="M8.627 19.499C10.28 17.518 12.76 16 15.76 16a3 3 0 0 1 2.864 2.107l1.275 4.09H21a3 3 0 0 1 0 6h-3.309a3 3 0 0 1-2.849-2.062A14.5 14.5 0 0 0 14 29.618V39a3 3 0 1 1-6 0v-6.988c-.193-.306-.43-.701-.672-1.143a14.5 14.5 0 0 1-.834-1.785C6.266 28.48 6 27.617 6 26.69c0-2.628.988-5.225 2.627-7.191M15.76 18c-2.286 0-4.24 1.153-5.597 2.78C8.812 22.4 8 24.548 8 26.69c0 .57.169 1.169.365 1.688.202.536.466 1.07.719 1.534a20 20 0 0 0 .755 1.265 1 1 0 0 1 .161.544V39a1 1 0 1 0 2 0v-9.435q0-.053.005-.105c.268-2.53 1.153-4.804 2.149-6.582a1 1 0 0 1 1.827.192l.756 2.424a1 1 0 0 0 .954.702H21a1 1 0 1 0 0-2h-1.837a1 1 0 0 1-.955-.702l-1.493-4.792A1 1 0 0 0 15.76 18"
    clip-rule="evenodd"
  />
  <path
    fill-rule="evenodd"
    d="M37.5 18a4.5 4.5 0 1 0 0-9 4.5 4.5 0 0 0 0 9m0-2a2.5 2.5 0 1 0 0-5 2.5 2.5 0 0 0 0 5"
    clip-rule="evenodd"
  />
  <path
    fill-rule="evenodd"
    d="M34.379 17.77a3 3 0 0 0-3.335-1.71l-.035.008h-.003l-.015.004-.021.005h-.003a4 4 0 0 0-.511.15 7 7 0 0 0-.936.41c-.727.383-1.611 1-2.461 1.977C25.32 20.609 24 23.78 24 28.667c0 .51.099 2.273 1.854 3.137q.256.125.492.196H16v10h2v-7h11v7h2v-8.46a35.822 35.822 0 0 1 2.546 1.947q.118.187.301.494c.276.462.62 1.056.977 1.674l.505.88.003.005.027.046v.002h.001c.5.871.984 1.715 1.182 2.025a3 3 0 0 0 5.059-3.226 84 84 0 0 1-.986-1.697l-.002-.003-.59-1.027c-.358-.62-.723-1.25-1.024-1.754a31 31 0 0 0-.418-.683l-.005-.009c-.084-.132-.274-.432-.485-.675a5 5 0 0 0-.492-.48l-.018-.016a24 24 0 0 0-.53-.446 42 42 0 0 0-1.984-1.53H39a3 3 0 0 0 0-6h-2.239zm-2.85 13.716a1 1 0 0 0-.121-.067 1 1 0 0 0-.111-.081c-.583-.369-1.168-.7-1.684-.916-.801-.336-1.358-.303-1.806-.277l-.04.003a4 4 0 0 1-.397.01 1.55 1.55 0 0 1-.633-.148c-.652-.32-.737-.974-.737-1.343 0-4.519 1.215-7.186 2.567-8.74a6.6 6.6 0 0 1 1.884-1.52 5 5 0 0 1 .793-.334q.182-.003.355-.072a1 1 0 0 1 .956.589l2.648 5.887a1 1 0 0 0 .912.59H39a1 1 0 1 1 0 2h-4.179a1 1 0 0 1-.912-.59l-1.023-2.275a1 1 0 0 0-1.837.031 15.2 15.2 0 0 0-.953 3.403 1 1 0 0 0 .568 1.065c1.188.549 2.547 1.476 3.613 2.267.59.438 1.114.853 1.505 1.174.195.16.36.3.484.408l.01.009c.041.036.097.085.157.14.062.059.113.11.145.147.046.053.101.128.161.214.059.085.11.167.154.234.11.174.243.392.389.637.293.49.65 1.108 1.008 1.727l.59 1.028.002.003.034.06c.463.805.855 1.488.999 1.714a1 1 0 1 1-1.687 1.075 86 86 0 0 1-1.163-1.997v-.001c-.169-.293-.34-.593-.508-.883-.357-.619-.708-1.225-.992-1.7a27 27 0 0 0-.417-.678 1 1 0 0 0-.18-.206l-.016-.015a20 20 0 0 0-.44-.37 38 38 0 0 0-1.428-1.114 31 31 0 0 0-1.556-1.088"
    clip-rule="evenodd"
  />
</svg>
